X:14
T:Double Point Virgule
R:waltz
D:"Alcoves" by Alain Pennec & Soig Siberil
C:?
Z:Transcribed by Lionel Gueganton
L:1/8
M:3/4
K:Bb
|: D,_G,=G,A,B,D | E_G=GABd     | e6        | zdebba  | 
   a6            | zdebba       | a=eegg_g  | _g6    :|
   gb2gb2        | ag_g=ga_g    | gdd'c'c'b | baagg_g | 
   gb2gb2        | ag_g=ga/g/_g | gfdfed    | cdcBA_G |
   GB2GB2        | AG_G=GA_G    | GDdDcD    | BA_GDAG | 
   G/G/GGBGB     | AG_G=GA/G/_G | G6       :|

